icons/evolvere-blue-folders-flat-vivid-dark-fallback/apps/64/launcher.svg

<?xml version="1.0" encoding="UTF-8" standalone="no"?>
<!-- Created with Inkscape (http://www.inkscape.org/) -->

<svg
   xmlns:dc="http://purl.org/dc/elements/1.1/"
   xmlns:cc="http://creativecommons.org/ns#"
   xmlns:rdf="http://www.w3.org/1999/02/22-rdf-syntax-ns#"
   xmlns:svg="http://www.w3.org/2000/svg"
   xmlns="http://www.w3.org/2000/svg"
   xmlns:sodipodi="http://sodipodi.sourceforge.net/DTD/sodipodi-0.dtd"
   xmlns:inkscape="http://www.inkscape.org/namespaces/inkscape"
   width="64"
   height="64"
   id="svg13094"
   version="1.1"
   inkscape:version="0.91+devel r"
   sodipodi:docname="launcher.svg">
  <sodipodi:namedview
     id="base"
     pagecolor="#ffffff"
     bordercolor="#666666"
     borderopacity="1.0"
     inkscape:pageopacity="0"
     inkscape:pageshadow="2"
     inkscape:zoom="11.313709"
     inkscape:cx="32.427022"
     inkscape:cy="30.611963"
     inkscape:document-units="px"
     inkscape:current-layer="svg13094"
     showgrid="true"
     inkscape:snap-bbox="true"
     inkscape:bbox-paths="true"
     inkscape:bbox-nodes="true"
     inkscape:snap-bbox-edge-midpoints="true"
     inkscape:snap-bbox-midpoints="true"
     inkscape:object-paths="true"
     inkscape:snap-intersection-paths="true"
     inkscape:object-nodes="true"
     inkscape:snap-smooth-nodes="true"
     inkscape:snap-midpoints="true"
     inkscape:snap-object-midpoints="true"
     inkscape:snap-center="true"
     showguides="false"
     inkscape:guide-bbox="true"
     inkscape:window-width="1920"
     inkscape:window-height="1023"
     inkscape:window-x="-10"
     inkscape:window-y="35"
     inkscape:window-maximized="1"
     inkscape:snap-global="true"
     fit-margin-top="0"
     fit-margin-left="0"
     fit-margin-right="0"
     fit-margin-bottom="0"
     showborder="true"
     inkscape:showpageshadow="false"
     inkscape:snap-page="true">
    <inkscape:grid
       type="xygrid"
       id="grid3075"
       empspacing="5"
       visible="true"
       enabled="true"
       snapvisiblegridlinesonly="true"
       originx="1.6362304e-08px"
       originy="18px" />
    <sodipodi:guide
       orientation="0,1"
       position="-11,30"
       id="guide9148" />
    <sodipodi:guide
       orientation="1,0"
       position="32,70"
       id="guide9150" />
  </sodipodi:namedview>
  <defs
     id="defs13096" />
  <metadata
     id="metadata13099">
    <rdf:RDF>
      <cc:Work
         rdf:about="">
        <dc:format>image/svg+xml</dc:format>
        <dc:type
           rdf:resource="http://purl.org/dc/dcmitype/StillImage" />
        <dc:title></dc:title>
      </cc:Work>
    </rdf:RDF>
  </metadata>
  <path
     id="path4190"
     d="m 0,4 0,30 0,28 2,2 30,0 30,0 2,-2 L 64,34 64,4 32,4 0,4 Z"
     style="color:#000000;display:inline;overflow:visible;visibility:visible;fill:#4556c7;fill-opacity:1;fill-rule:nonzero;stroke:none;stroke-width:2.28571415;marker:none;enable-background:accumulate"
     inkscape:connector-curvature="0" />
  <path
     style="color:#000000;display:inline;overflow:visible;visibility:visible;opacity:1;fill:#6940c3;fill-opacity:1;fill-rule:nonzero;stroke:none;stroke-width:10.43072414;stroke-linecap:butt;stroke-linejoin:miter;stroke-miterlimit:4;stroke-dasharray:none;stroke-dashoffset:0;stroke-opacity:1;marker:none;enable-background:accumulate"
     d="M 32 30 L 0.96875 62.96875 L 2 64 L 62 64 L 63.03125 62.96875 L 32 30 z "
     id="path4212" />
  <path
     style="color:#000000;fill:#7288ef;fill-opacity:1;fill-rule:nonzero;stroke:none;marker:none;visibility:visible;display:inline;overflow:visible;enable-background:accumulate"
     d="M 2 0 L 0 1 L 0 4 L 19.5625 4 L 39.125 4 L 64 4 L 64 1 L 62 0 L 39.125 0 L 19.5625 0 L 2 0 z "
     id="path6688" />
  <path
     d="M 64,6 62,4 64,3 z"
     id="path3028"
     style="fill:#5b6fdb;fill-opacity:1"
     inkscape:connector-curvature="0" />
  <g
     id="g3043"
     inkscape:export-filename="folder.png"
     inkscape:export-xdpi="90"
     inkscape:export-ydpi="90"
     transform="translate(-0.62500009,0.082283)" />
  <g
     id="scalable"
     transform="matrix(1.0385892,0,0,1.0385892,1214.7222,1878.8121)"
     inkscape:label="#g3701"
     style="fill:#ffffff" />
  <path
     style="fill:#879af1;fill-opacity:1;fill-rule:nonzero"
     d="M 0,3 0,6 2,4 Z"
     id="path4298"
     inkscape:connector-curvature="0"
     sodipodi:nodetypes="cccc" />
  <path
     style="color:#000000;fill:#e85922;fill-opacity:1;fill-rule:nonzero;stroke:none;stroke-width:2;marker:none;visibility:visible;display:inline;overflow:visible;enable-background:accumulate"
     d="m 30,9 4,0 c 0,0 6,8.722222 6,22.5 C 40,45.277778 37,52 37,52 L 27,52 C 27,52 24,45.277778 24,31.5 24,17.722222 30,9 30,9 z"
     id="path3972"
     inkscape:connector-curvature="0"
     sodipodi:nodetypes="cczcczc" />
  <path
     style="color:#000000;fill:#eee9e7;fill-opacity:1;fill-rule:nonzero;stroke:none;stroke-width:2;marker:none;visibility:visible;display:inline;overflow:visible;enable-background:accumulate"
     d="m 24.625,24 c -0.01724,0.105974 -0.04587,0.205573 -0.0625,0.3125 -0.08509,0.535567 -0.146632,1.067135 -0.21875,1.625 -0.06649,0.514315 -0.108801,1.05898 -0.15625,1.59375 C 24.17349,27.689118 24.13691,27.840268 24.125,28 l 0.875,0 0,-4 -0.375,0 z m 0.375,4 0,4 2,0 0,-4 -2,0 z m 2,0 3,0 0,-4 -3,0 0,4 z m 3,0 0,4 4,0 0,-4 -4,0 z m 4,0 3,0 0,-4 -3,0 0,4 z m 3,0 0,4 2,0 0,-4 -2,0 z m 2,0 0.875,0 C 39.86327,27.84271 39.82569,27.686925 39.8125,27.53125 39.76505,26.99648 39.72274,26.451815 39.65625,25.9375 39.58413,25.379635 39.522594,24.848067 39.4375,24.3125 39.42087,24.205573 39.39224,24.105974 39.375,24 L 39,24 l 0,4 z m 0,4 0,4 0.875,0 c 0.02665,-0.526713 0.07321,-1.070148 0.09375,-1.625 0.0034,-0.106136 -0.003,-0.20539 0,-0.3125 6.77e-4,-0.02022 -6.64e-4,-0.04225 0,-0.0625 C 39.98633,33.355118 39.9963,32.6801 40,32 l -1,0 z m -2,0 -3,0 0,4 3,0 0,-4 z m -7,0 -3,0 0,4 3,0 0,-4 z m -5,0 -1,0 c 0.0037,0.6801 0.01367,1.355118 0.03125,2 0.02259,0.688745 0.06103,1.35326 0.09375,2 L 25,36 25,32 z"
     id="path3861"
     inkscape:connector-curvature="0" />
  <path
     inkscape:connector-curvature="0"
     id="path3981"
     d="m 25,39 c 0.420282,4.565212 1.225231,8.097092 3,13 -4,1 -5,4 -7,7 l -2,0 c 0,-9 2,-14 6,-20 z"
     style="color:#000000;fill:#b43e1a;fill-opacity:1;fill-rule:nonzero;stroke:none;stroke-width:2;marker:none;visibility:visible;display:inline;overflow:visible;enable-background:accumulate"
     sodipodi:nodetypes="ccccc" />
  <path
     inkscape:connector-curvature="0"
     id="path3976"
     d="m 39,39 c -0.420282,4.565212 -1.225231,8.097092 -3,13 4,1 5,4 7,7 l 2,0 C 45,50 43,45 39,39 z"
     style="color:#000000;fill:#e85922;fill-opacity:1;fill-rule:nonzero;stroke:none;stroke-width:2;marker:none;visibility:visible;display:inline;overflow:visible;enable-background:accumulate"
     sodipodi:nodetypes="ccccc" />
  <path
     sodipodi:nodetypes="cccc"
     inkscape:connector-curvature="0"
     id="path3822"
     d="m 31,59 c 0,-5 0,-7 1,-20 1,13 1,15 1,20 z"
     style="color:#000000;fill:#b43e1a;fill-opacity:1;fill-rule:nonzero;stroke:none;stroke-width:2;marker:none;visibility:visible;display:inline;overflow:visible;enable-background:accumulate" />
  <path
     style="color:#000000;fill:#e85922;fill-opacity:1;fill-rule:nonzero;stroke:none;stroke-width:2;marker:none;visibility:visible;display:inline;overflow:visible;enable-background:accumulate"
     d="m 31,59 c 0,-5 0,-7 1,-20 l 0,20 z"
     id="path3792"
     inkscape:connector-curvature="0"
     sodipodi:nodetypes="cccc" />
</svg>

<svg xmlns="http://www.w3.org/2000/svg" viewBox="0 0 64 64"><g color="#000"><path d="m0 4v30 28l2 2h30 30l2-2v-28-30h-32-32" fill="#4556c7"/><path d="m32 30l-31.03 32.969 1.031 1.031h60l1.031-1.031-31.03-32.969" fill="#6940c3"/><path d="m2 0l-2 1v3h19.563 19.563 24.875v-3l-2-1h-22.875-19.563-17.563" fill="#7288ef"/></g><path d="m64 6l-2-2 2-1z" fill="#5b6fdb"/><path d="m0 3v3l2-2" fill="#879af1"/><g color="#000"><path d="m30 9h4c0 0 6 8.722 6 22.5 0 13.778-3 20.5-3 20.5h-10c0 0-3-6.722-3-20.5 0-13.778 6-22.5 6-22.5" fill="#e85922"/><path d="m24.625 24c-.017.106-.046.206-.063.313-.085.536-.147 1.067-.219 1.625-.066.514-.109 1.059-.156 1.594-.014.158-.051.309-.063.469h.875v-4h-.375m.375 4v4h2v-4h-2m2 0h3v-4h-3v4m3 0v4h4v-4h-4m4 0h3v-4h-3v4m3 0v4h2v-4h-2m2 0h.875c-.012-.157-.049-.313-.063-.469-.047-.535-.09-1.079-.156-1.594-.072-.558-.134-1.089-.219-1.625-.017-.107-.045-.207-.063-.313h-.375v4m0 4v4h.875c.027-.527.073-1.07.094-1.625.003-.106-.003-.205 0-.313.001-.02-.001-.042 0-.063.018-.645.028-1.32.031-2h-1m-2 0h-3v4h3v-4m-7 0h-3v4h3v-4m-5 0h-1c.004.68.014 1.355.031 2 .023.689.061 1.353.094 2h.875v-4" fill="#eee9e7"/><path d="m25 39c.42 4.565 1.225 8.097 3 13-4 1-5 4-7 7h-2c0-9 2-14 6-20" fill="#b43e1a"/><path d="m39 39c-.42 4.565-1.225 8.097-3 13 4 1 5 4 7 7h2c0-9-2-14-6-20" fill="#e85922"/><path d="m31 59c0-5 0-7 1-20 1 13 1 15 1 20z" fill="#b43e1a"/><path d="m31 59c0-5 0-7 1-20v20z" fill="#e85922"/></g></svg>
